X:240
T: DER KOENIG RIEF UND ALLE KAMEN
N: E1379
O: Europa, Mitteleuropa, Deutschland, Hessen, Taunus, Wuerges
R: Staende -, Soldaten -, Kriegs - Lied
M: 4/4
L: 1/16
K: G
D2E2F2 | G6G2B3BA2G2 | B4A4z2
D2E2F2 | G6G2B3BA2G2 | A8z2
A2A2A2 | A6A2A2c2e2d2 | d2B2B4z2
d2e2d2 | d2c2c4F2F2E2F2 | G4
D4c6B2 | A6A2A2c2e2d2 | d2g2B4z2
d2e2d2 | d2c2c4F2F2E2F2 | G8z2

